X:1
T:when resolving to a G chord at the end.
L:1/8
M:2/2
I:linebreak $
K:G
V:1 treble nm="Voice" snm="Voice"
V:1
 BA |"G" G2 g2 edeg | B2 BA BcBA | G2 g2 edeg |"D7" A2 AG AcBA |$"G" G2 g2 edeg | B2 BA Bc d2 | %7
"C" e3 f edef |"D7" gedB A2 BA ::$"G" GABc dBGA | c2 BA BcBA | GABc dBGB |"D7" A2 AG AcBA |$ %13
"G" GABc dBGA | B2 BA Bc d2 |"C" e3 f edef |"D7" gedB A4 :| %17
